!!!COM: Robert Franz
!!!CNT: Deutscher
!!!TXO: Deutsche 
!!!OTL: Rastlose Liebe
!!!OPS: Op. 33
!!!ONM: No. 6
!!!ONB: Original key: E Major
!!!LYR: Goethe
!!!ENC: Brian Bice
!!!YOR: Vocal Album, G. Schirmer, Inc., 1907
!!!ODT: 1864/
!!NB: Vocal melody and text only encoded.
**kern	**silbe
*clefG2	*
*k[f#c#]	*
*M12/8	*
=1	=1
2.r	.
4.r	.
4r	.
{(16d	{Dem
16e)	|
=2	=2
4f#	schnee,
8a	dem
8dd	Re-
8a	-gen,
(16f#	dem
16e)	|
4d	Wind
8e	ent-
8f#	-ge-
8d	-gen,
(16B	im
16c#)	|
=3	=3
4d	Dampf
8f#	der
8b	Klu2f-
8f#	-te,
(16d	durch
16c#)	|
4B	Ne-
8c#	-bel-
8d	-du2f-
8F}	-te,}
8r	.
=4	=4
4r	.
{16b	{im-
16cc#	-mer
4dd	zu,
16g	im-
16a	-mer
4b	zu!
8r	.
4dd	oh-
8cc#	-ne
=5	=5
4.b	Rast
4.a#	und
[4.b	Ruh'!
4b]}	|}
8r	.
=7	=7
{4.dd	{Lie-
4b	-ber
8ccn	durch
4.dd	Lei-
4e	-den
8r	.
=8	=8
4.ccn	mo2cht'
4a	ich
8b-	mich
4.ccn	schla-
4d}	-gen,}
8r	.
=9	=9
{4.b-	{als
4a	so
8g	viel
4.g	Freu-
4fn	-den
8e-	des
=10	=10
4.e-	Le-
4dd	-bens
8ccn	er-
4.b-	-tra-
4a}	-gen;}
8r	.
=11	=11
{(4g	{al-
8b-)	|
4a	-le
8g	das
4.f#	Nei-
4a	-gen
8dd	der
=12	=12
(4cc#	Her-
8e)	|
4a	-zen
8g	zu
4.f#	Her-
4a}	-zen,}
8r	.
=13	=13
{(4e	{ach
8g)	|
4f#	wie
8e	so
4.d	ei-
4f#	|
8b	-gen
=14	=14
(4a#	schaf-
8cc#)	|
4f#	-fet
8e	das
4.d	Schmer-
4f#}	-zen!}
8r	.
=15	=15
{4.b	{Wie
4an	soll
8an	ich
[4.g#	flieh'n?
4g#]	|
8r	.
=16	=16
4.dd	Wa2l-
4ccn	-der-
8ccn	-wa2rts
[4.b	zieh'n?
4b]}	|}
8r	.
=17	=17
{4.ffn	{Al-
4ee	-les
8dd	ver-
4.dd	-ge-
4cc#}	-bens!}
8r;	.
=18	=18
{4.bn	{Kro-
4a	-ne
8g	des
4.f#	Le-
4.a	-bens,
=19	=19
4.dd	Glu2ck
4cc#	oh-
8dd	-ne
[4.ee	Ruh',
4ee]}	|}
8r	.
=20	=20
{4.dd	{Lie-
4cc#	-be,
8dd	bist
[4.ee	du!
4ee]	|
8r	.
=21	=21
(4a	Lie-
8dd)	|
4cc#	-be,
8b	ja,
4.a	Lie-
4c#	-be,
8c#	bist
=22	=22
[4.d	du!
4d]}	|}
8r	.
2.r	.
*-	*-
